X: 295
T:Mester Ship, The
M:C|
L:1/8
Q:150
C:Jennifer Wrigley
R:reel
D:Jennifer & Hazel Wrigley: Mither o' the Sea
Z:Devin McCabe
K:A
DEA2 edca|gaAB cdBG|DEA2 edca|fgab gedA|
!DEA2 edca|gaAB cdBG|FAGE ecAa|gede A4:|
!:agfe f4|ecae GEED|GAAF FEEe|cddB Aefg|
!agff fbed|feed dcce|dedc BecA|1GAAe A3e:|2GAAe A3D||
